assets/images/img-guide-data-table.svg

<svg xmlns="http://www.w3.org/2000/svg" width="96" height="96" fill="none" viewBox="0 0 96 96"><g clip-path="url(#clip0_1019_76270)"><rect width="96" height="96" fill="#464C59"/><rect width="915.719" height="72.254" x="20.372" y="17.372" fill="#fff" rx="11.53"/><path fill="#56585D" d="M29.5336 26.6949V20.4463H30.6762V25.8023H33.4435V26.6949H29.5336ZM36.2475 26.8021C35.8666 26.8021 35.5542 26.7426 35.3102 26.6235C35.0662 26.4986 34.8847 26.3349 34.7656 26.1326C34.6466 25.9302 34.5871 25.7071 34.5871 25.4631C34.5871 25.0525 34.7478 24.7192 35.0692 24.4633C35.3905 24.2074 35.8725 24.0795 36.5153 24.0795H37.64V23.9723C37.64 23.6688 37.5537 23.4457 37.3811 23.3028C37.2086 23.16 36.9943 23.0886 36.7384 23.0886C36.5063 23.0886 36.304 23.1451 36.1314 23.2582C35.9588 23.3653 35.8517 23.526 35.8101 23.7402H34.6942C34.724 23.4189 34.8311 23.1392 35.0156 22.9011C35.206 22.6631 35.45 22.4816 35.7476 22.3566C36.0451 22.2257 36.3784 22.1602 36.7474 22.1602C37.3782 22.1602 37.8751 22.3179 38.2381 22.6333C38.6011 22.9488 38.7826 23.3951 38.7826 23.9723V26.6949H37.8096L37.7025 25.9808C37.5716 26.2189 37.3871 26.4152 37.149 26.57C36.917 26.7247 36.6164 26.8021 36.2475 26.8021ZM36.5063 25.9094C36.8336 25.9094 37.0866 25.8023 37.2651 25.588C37.4496 25.3738 37.5656 25.109 37.6132 24.7936H36.6402C36.3367 24.7936 36.1195 24.8501 35.9886 24.9632C35.8577 25.0703 35.7922 25.2042 35.7922 25.3649C35.7922 25.5375 35.8577 25.6714 35.9886 25.7666C36.1195 25.8618 36.2921 25.9094 36.5063 25.9094ZM42.795 26.8021C42.4617 26.8021 42.1701 26.7396 41.9201 26.6146C41.6702 26.4896 41.4679 26.3141 41.3131 26.0879L41.1882 26.6949H40.1705V20.2678H41.3131V22.9011C41.456 22.7048 41.6434 22.5322 41.8755 22.3834C42.1136 22.2346 42.42 22.1602 42.795 22.1602C43.2115 22.1602 43.5835 22.2614 43.9108 22.4637C44.2381 22.6661 44.497 22.9428 44.6874 23.2939C44.8778 23.645 44.973 24.0437 44.973 24.4901C44.973 24.9364 44.8778 25.3351 44.6874 25.6862C44.497 26.0314 44.2381 26.3052 43.9108 26.5075C43.5835 26.7039 43.2115 26.8021 42.795 26.8021ZM42.5539 25.8023C42.9169 25.8023 43.2175 25.6803 43.4555 25.4363C43.6936 25.1923 43.8126 24.8769 43.8126 24.4901C43.8126 24.1033 43.6936 23.7849 43.4555 23.5349C43.2175 23.285 42.9169 23.16 42.5539 23.16C42.185 23.16 41.8815 23.285 41.6434 23.5349C41.4113 23.7789 41.2953 24.0943 41.2953 24.4812C41.2953 24.868 41.4113 25.1864 41.6434 25.4363C41.8815 25.6803 42.185 25.8023 42.5539 25.8023ZM48.4426 26.8021C47.9963 26.8021 47.6005 26.7068 47.2554 26.5164C46.9102 26.326 46.6394 26.0582 46.443 25.713C46.2467 25.3679 46.1485 24.9691 46.1485 24.5169C46.1485 24.0586 46.2437 23.651 46.4341 23.2939C46.6305 22.9369 46.8983 22.6601 47.2375 22.4637C47.5827 22.2614 47.9873 22.1602 48.4515 22.1602C48.886 22.1602 49.2698 22.2555 49.6031 22.4459C49.9363 22.6363 50.1952 22.8982 50.3797 23.2314C50.5701 23.5587 50.6653 23.9247 50.6653 24.3294C50.6653 24.3949 50.6623 24.4633 50.6564 24.5347C50.6564 24.6061 50.6534 24.6805 50.6475 24.7579H47.2821C47.3059 25.103 47.425 25.3738 47.6392 25.5702C47.8594 25.7666 48.1242 25.8648 48.4337 25.8648C48.6658 25.8648 48.8592 25.8142 49.0139 25.713C49.1746 25.6059 49.2936 25.469 49.371 25.3024H50.5314C50.4481 25.5821 50.3083 25.838 50.1119 26.0701C49.9214 26.2962 49.6834 26.4748 49.3977 26.6057C49.118 26.7366 48.7997 26.8021 48.4426 26.8021ZM48.4515 23.0886C48.1718 23.0886 47.9249 23.1689 47.7106 23.3296C47.4964 23.4843 47.3595 23.7224 47.3 24.0437H49.5049C49.487 23.7521 49.3799 23.5201 49.1835 23.3475C48.9871 23.1749 48.7431 23.0886 48.4515 23.0886ZM51.9239 26.6949V20.2678H53.0665V26.6949H51.9239Z"/><path fill="#0D1117" d="M31.4053 50.3042V43.7327H29.2287V43.0142H34.4567V43.7327H32.2801V50.3042H31.4053ZM37.0083 50.4292C36.5154 50.4292 36.078 50.3181 35.6961 50.0959C35.3142 49.8668 35.0122 49.5509 34.79 49.1482C34.5748 48.7455 34.4672 48.2699 34.4672 47.7214C34.4672 47.1799 34.5748 46.7078 34.79 46.3051C35.0053 45.8955 35.3038 45.5796 35.6857 45.3574C36.0745 45.1283 36.5223 45.0137 37.0291 45.0137C37.529 45.0137 37.9595 45.1283 38.3205 45.3574C38.6885 45.5796 38.9697 45.8746 39.1641 46.2426C39.3585 46.6106 39.4557 47.0063 39.4557 47.4298C39.4557 47.5062 39.4522 47.5826 39.4453 47.659C39.4453 47.7353 39.4453 47.8221 39.4453 47.9193H35.3316C35.3524 48.3151 35.4427 48.6448 35.6024 48.9087C35.769 49.1656 35.9738 49.36 36.2168 49.4919C36.4668 49.6238 36.7306 49.6898 37.0083 49.6898C37.3693 49.6898 37.6714 49.6064 37.9144 49.4398C38.1574 49.2732 38.3344 49.0475 38.4455 48.7629H39.3099C39.171 49.2419 38.9037 49.6412 38.508 49.9605C38.1192 50.273 37.6193 50.4292 37.0083 50.4292ZM37.0083 45.7531C36.5917 45.7531 36.2203 45.8816 35.894 46.1385C35.5746 46.3884 35.3906 46.7564 35.342 47.2424H38.5913C38.5705 46.7772 38.4108 46.4127 38.1122 46.1489C37.8137 45.885 37.4457 45.7531 37.0083 45.7531ZM39.9991 50.3042L41.7904 47.7214L39.9991 45.1387H40.9468L42.3944 47.2736L43.8525 45.1387H44.7897L42.9985 47.7214L44.7897 50.3042H43.8525L42.3944 48.1693L40.9468 50.3042H39.9991ZM47.8967 50.3042C47.4246 50.3042 47.0531 50.1896 46.7823 49.9605C46.5116 49.7314 46.3762 49.3183 46.3762 48.7212V45.8781H45.4806V45.1387H46.3762L46.4907 43.8994H47.251V45.1387H48.7715V45.8781H47.251V48.7212C47.251 49.0475 47.317 49.2697 47.4489 49.3877C47.5808 49.4988 47.8134 49.5544 48.1466 49.5544H48.6882V50.3042H47.8967ZM56.1859 50.4292C55.4708 50.4292 54.8528 50.273 54.3321 49.9605C53.8183 49.6412 53.4191 49.2003 53.1345 48.6379C52.8498 48.0686 52.7075 47.409 52.7075 46.6592C52.7075 45.9163 52.8498 45.2637 53.1345 44.7013C53.4191 44.132 53.8183 43.6876 54.3321 43.3682C54.8528 43.0489 55.4708 42.8892 56.1859 42.8892C57.019 42.8892 57.696 43.0905 58.2167 43.4932C58.7443 43.889 59.0811 44.4444 59.2269 45.1595H58.2583C58.1472 44.7082 57.9181 44.3472 57.571 44.0764C57.2308 43.7987 56.7691 43.6598 56.1859 43.6598C55.6652 43.6598 55.2104 43.7813 54.8216 44.0243C54.4328 44.2604 54.1308 44.6041 53.9155 45.0554C53.7073 45.4997 53.6031 46.0343 53.6031 46.6592C53.6031 47.284 53.7073 47.8221 53.9155 48.2734C54.1308 48.7177 54.4328 49.0614 54.8216 49.3044C55.2104 49.5405 55.6652 49.6585 56.1859 49.6585C56.7691 49.6585 57.2308 49.5266 57.571 49.2628C57.9181 48.992 58.1472 48.6344 58.2583 48.1901H59.2269C59.0811 48.8913 58.7443 49.4398 58.2167 49.8356C57.696 50.2313 57.019 50.4292 56.1859 50.4292ZM62.9345 50.4292C62.4485 50.4292 62.0111 50.3181 61.6223 50.0959C61.2335 49.8737 60.9245 49.5613 60.6954 49.1586C60.4732 48.749 60.3622 48.2699 60.3622 47.7214C60.3622 47.1729 60.4767 46.6974 60.7058 46.2947C60.9349 45.885 61.2439 45.5691 61.6327 45.347C62.0285 45.1248 62.4693 45.0137 62.9553 45.0137C63.4413 45.0137 63.8787 45.1248 64.2675 45.347C64.6563 45.5691 64.9618 45.885 65.184 46.2947C65.4131 46.6974 65.5277 47.1729 65.5277 47.7214C65.5277 48.2699 65.4131 48.749 65.184 49.1586C64.9549 49.5613 64.6425 49.8737 64.2467 50.0959C63.8579 50.3181 63.4205 50.4292 62.9345 50.4292ZM62.9345 49.6793C63.233 49.6793 63.5108 49.6064 63.7677 49.4606C64.0245 49.3148 64.2328 49.0961 64.3925 48.8045C64.5522 48.5129 64.632 48.1519 64.632 47.7214C64.632 47.291 64.5522 46.9299 64.3925 46.6383C64.2398 46.3467 64.035 46.128 63.7781 45.9822C63.5212 45.8364 63.2469 45.7635 62.9553 45.7635C62.6568 45.7635 62.3791 45.8364 62.1222 45.9822C61.8653 46.128 61.657 46.3467 61.4973 46.6383C61.3376 46.9299 61.2578 47.291 61.2578 47.7214C61.2578 48.1519 61.3376 48.5129 61.4973 48.8045C61.657 49.0961 61.8618 49.3148 62.1118 49.4606C62.3687 49.6064 62.6429 49.6793 62.9345 49.6793ZM66.8928 50.3042V45.1387H67.6843L67.7364 46.0656C67.903 45.7392 68.1425 45.4824 68.455 45.2949C68.7674 45.1074 69.1215 45.0137 69.5172 45.0137C70.1282 45.0137 70.6142 45.2012 70.9752 45.5761C71.3432 45.9441 71.5272 46.5134 71.5272 47.284V50.3042H70.6524V47.3778C70.6524 46.3016 70.2081 45.7635 69.3194 45.7635C68.875 45.7635 68.5036 45.9267 68.205 46.253C67.9134 46.5724 67.7676 47.0306 67.7676 47.6277V50.3042H66.8928ZM75.0426 50.3042C74.5705 50.3042 74.199 50.1896 73.9283 49.9605C73.6575 49.7314 73.5221 49.3183 73.5221 48.7212V45.8781H72.6265V45.1387H73.5221L73.6366 43.8994H74.3969V45.1387H75.9174V45.8781H74.3969V48.7212C74.3969 49.0475 74.4629 49.2697 74.5948 49.3877C74.7267 49.4988 74.9593 49.5544 75.2925 49.5544H75.8341V50.3042H75.0426ZM79.3576 50.4292C78.8646 50.4292 78.4272 50.3181 78.0454 50.0959C77.6635 49.8668 77.3615 49.5509 77.1393 49.1482C76.9241 48.7455 76.8165 48.2699 76.8165 47.7214C76.8165 47.1799 76.9241 46.7078 77.1393 46.3051C77.3546 45.8955 77.6531 45.5796 78.035 45.3574C78.4238 45.1283 78.8716 45.0137 79.3784 45.0137C79.8783 45.0137 80.3088 45.1283 80.6698 45.3574C81.0378 45.5796 81.319 45.8746 81.5134 46.2426C81.7078 46.6106 81.805 47.0063 81.805 47.4298C81.805 47.5062 81.8015 47.5826 81.7946 47.659C81.7946 47.7353 81.7946 47.8221 81.7946 47.9193H77.6809C77.7017 48.3151 77.792 48.6448 77.9517 48.9087C78.1183 49.1656 78.3231 49.36 78.5661 49.4919C78.816 49.6238 79.0799 49.6898 79.3576 49.6898C79.7186 49.6898 80.0206 49.6064 80.2636 49.4398C80.5066 49.2732 80.6837 49.0475 80.7948 48.7629H81.6592C81.5203 49.2419 81.253 49.6412 80.8573 49.9605C80.4685 50.273 79.9686 50.4292 79.3576 50.4292ZM79.3576 45.7531C78.941 45.7531 78.5696 45.8816 78.2433 46.1385C77.9239 46.3884 77.7399 46.7564 77.6913 47.2424H80.9406C80.9197 46.7772 80.7601 46.4127 80.4615 46.1489C80.163 45.885 79.795 45.7531 79.3576 45.7531ZM83.1132 50.3042V45.1387H83.9047L83.9568 46.0656C84.1234 45.7392 84.363 45.4824 84.6754 45.2949C84.9878 45.1074 85.3419 45.0137 85.7377 45.0137C86.3486 45.0137 86.8346 45.2012 87.1957 45.5761C87.5636 45.9441 87.7476 46.5134 87.7476 47.284V50.3042H86.8728V47.3778C86.8728 46.3016 86.4285 45.7635 85.5398 45.7635C85.0954 45.7635 84.724 45.9267 84.4254 46.253C84.1338 46.5724 83.988 47.0306 83.988 47.6277V50.3042H83.1132ZM91.263 50.3042C90.7909 50.3042 90.4194 50.1896 90.1487 49.9605C89.8779 49.7314 89.7425 49.3183 89.7425 48.7212V45.8781H88.8469V45.1387H89.7425L89.8571 43.8994H90.6173V45.1387H92.1378V45.8781H90.6173V48.7212C90.6173 49.0475 90.6833 49.2697 90.8152 49.3877C90.9471 49.4988 91.1797 49.5544 91.5129 49.5544H92.0545V50.3042H91.263Z"/><rect width="34.902" height="14.976" x="92.927" y="39.316" fill="#F2F7FD" rx="4.463"/><path fill="#9EA0A2" d="M32.3277 63.4113C31.7147 63.4113 31.1851 63.2774 30.7387 63.0096C30.2984 62.7359 29.9562 62.358 29.7122 61.8759C29.4682 61.388 29.3462 60.8226 29.3462 60.1799C29.3462 59.5431 29.4682 58.9837 29.7122 58.5017C29.9562 58.0137 30.2984 57.6328 30.7387 57.3591C31.1851 57.0853 31.7147 56.9485 32.3277 56.9485C33.0418 56.9485 33.622 57.121 34.0684 57.4662C34.5206 57.8054 34.8093 58.2815 34.9342 58.8945H34.1041C34.0088 58.5076 33.8125 58.1982 33.5149 57.9661C33.2233 57.7281 32.8276 57.609 32.3277 57.609C31.8813 57.609 31.4915 57.7132 31.1583 57.9215C30.825 58.1238 30.5662 58.4184 30.3817 58.8052C30.2031 59.1861 30.1139 59.6443 30.1139 60.1799C30.1139 60.7155 30.2031 61.1767 30.3817 61.5635C30.5662 61.9444 30.825 62.239 31.1583 62.4472C31.4915 62.6496 31.8813 62.7508 32.3277 62.7508C32.8276 62.7508 33.2233 62.6377 33.5149 62.4115C33.8125 62.1794 34.0088 61.873 34.1041 61.4921H34.9342C34.8093 62.0932 34.5206 62.5633 34.0684 62.9025C33.622 63.2417 33.0418 63.4113 32.3277 63.4113ZM37.7377 63.4113C37.3687 63.4113 37.0623 63.3488 36.8183 63.2239C36.5743 63.0989 36.3928 62.9323 36.2738 62.724C36.1547 62.5157 36.0952 62.2895 36.0952 62.0456C36.0952 61.5933 36.2678 61.2451 36.613 61.0011C36.9581 60.7571 37.4283 60.6351 38.0234 60.6351H39.2195V60.5816C39.2195 60.1948 39.1184 59.9032 38.916 59.7068C38.7137 59.5044 38.4429 59.4033 38.1037 59.4033C37.8121 59.4033 37.5592 59.4777 37.3449 59.6264C37.1367 59.7693 37.0057 59.9805 36.9522 60.2602H36.1845C36.2142 59.9389 36.3214 59.6681 36.5058 59.4479C36.6963 59.2277 36.9313 59.0611 37.211 58.948C37.4907 58.829 37.7883 58.7695 38.1037 58.7695C38.7226 58.7695 39.1868 58.9361 39.4963 59.2694C39.8117 59.5967 39.9694 60.0341 39.9694 60.5816V63.3042H39.2999L39.2552 62.5097C39.1303 62.7597 38.9458 62.9739 38.7018 63.1524C38.4637 63.325 38.1424 63.4113 37.7377 63.4113ZM37.8538 62.7775C38.1394 62.7775 38.3834 62.7031 38.5857 62.5544C38.794 62.4056 38.9517 62.2122 39.0589 61.9741C39.166 61.7361 39.2195 61.4862 39.2195 61.2243V61.2154H38.0859C37.6455 61.2154 37.333 61.2927 37.1486 61.4475C36.97 61.5962 36.8808 61.7837 36.8808 62.0098C36.8808 62.2419 36.9641 62.4294 37.1307 62.5722C37.3033 62.7091 37.5443 62.7775 37.8538 62.7775ZM41.3918 65.268V58.8766H42.0702L42.1416 59.6086C42.2845 59.3944 42.4868 59.2009 42.7486 59.0284C43.0164 58.8558 43.3557 58.7695 43.7663 58.7695C44.2067 58.7695 44.5905 58.8707 44.9178 59.073C45.2451 59.2753 45.498 59.5521 45.6766 59.9032C45.8611 60.2543 45.9533 60.653 45.9533 61.0993C45.9533 61.5457 45.8611 61.9444 45.6766 62.2955C45.498 62.6407 45.2421 62.9144 44.9089 63.1167C44.5816 63.3131 44.1977 63.4113 43.7574 63.4113C43.3943 63.4113 43.07 63.3369 42.7844 63.1882C42.5047 63.0394 42.2904 62.8311 42.1416 62.5633V65.268H41.3918ZM43.677 62.7597C43.9746 62.7597 44.2364 62.6912 44.4626 62.5544C44.6887 62.4115 44.8672 62.2152 44.9981 61.9652C45.1291 61.7153 45.1945 61.4237 45.1945 61.0904C45.1945 60.7571 45.1291 60.4655 44.9981 60.2156C44.8672 59.9657 44.6887 59.7722 44.4626 59.6354C44.2364 59.4925 43.9746 59.4211 43.677 59.4211C43.3795 59.4211 43.1176 59.4925 42.8915 59.6354C42.6653 59.7722 42.4868 59.9657 42.3559 60.2156C42.225 60.4655 42.1595 60.7571 42.1595 61.0904C42.1595 61.4237 42.225 61.7153 42.3559 61.9652C42.4868 62.2152 42.6653 62.4115 42.8915 62.5544C43.1176 62.6912 43.3795 62.7597 43.677 62.7597ZM48.8699 63.3042C48.4652 63.3042 48.1468 63.206 47.9147 63.0096C47.6827 62.8132 47.5666 62.4591 47.5666 61.9474V59.5104H46.7989V58.8766H47.5666L47.6648 57.8143H48.3164V58.8766H49.6197V59.5104H48.3164V61.9474C48.3164 62.2271 48.373 62.4175 48.486 62.5187C48.5991 62.6139 48.7985 62.6615 49.0841 62.6615H49.5483V63.3042H48.8699ZM51.3252 57.8947C51.1764 57.8947 51.0514 57.8471 50.9503 57.7519C50.855 57.6507 50.8074 57.5257 50.8074 57.3769C50.8074 57.2341 50.855 57.1151 50.9503 57.0199C51.0514 56.9247 51.1764 56.8771 51.3252 56.8771C51.468 56.8771 51.59 56.9247 51.6912 57.0199C51.7923 57.1151 51.8429 57.2341 51.8429 57.3769C51.8429 57.5257 51.7923 57.6507 51.6912 57.7519C51.59 57.8471 51.468 57.8947 51.3252 57.8947ZM50.9503 63.3042V58.8766H51.7001V63.3042H50.9503ZM55.3206 63.4113C54.9041 63.4113 54.5291 63.3161 54.1959 63.1257C53.8626 62.9352 53.5978 62.6674 53.4014 62.3223C53.211 61.9712 53.1158 61.5605 53.1158 61.0904C53.1158 60.6203 53.214 60.2126 53.4103 59.8675C53.6067 59.5163 53.8716 59.2456 54.2048 59.0551C54.544 58.8647 54.9219 58.7695 55.3385 58.7695C55.7551 58.7695 56.13 58.8647 56.4632 59.0551C56.7965 59.2456 57.0583 59.5163 57.2488 59.8675C57.4452 60.2126 57.5434 60.6203 57.5434 61.0904C57.5434 61.5605 57.4452 61.9712 57.2488 62.3223C57.0524 62.6674 56.7846 62.9352 56.4454 63.1257C56.1121 63.3161 55.7372 63.4113 55.3206 63.4113ZM55.3206 62.7686C55.5765 62.7686 55.8146 62.7061 56.0348 62.5811C56.255 62.4562 56.4335 62.2687 56.5704 62.0188C56.7072 61.7688 56.7757 61.4594 56.7757 61.0904C56.7757 60.7214 56.7072 60.412 56.5704 60.162C56.4394 59.9121 56.2639 59.7246 56.0437 59.5997C55.8235 59.4747 55.5884 59.4122 55.3385 59.4122C55.0826 59.4122 54.8445 59.4747 54.6244 59.5997C54.4042 59.7246 54.2256 59.9121 54.0888 60.162C53.9519 60.412 53.8835 60.7214 53.8835 61.0904C53.8835 61.4594 53.9519 61.7688 54.0888 62.0188C54.2256 62.2687 54.4012 62.4562 54.6154 62.5811C54.8356 62.7061 55.0707 62.7686 55.3206 62.7686ZM58.8835 63.3042V58.8766H59.5619L59.6066 59.6711C59.7494 59.3914 59.9547 59.1712 60.2225 59.0105C60.4903 58.8498 60.7938 58.7695 61.133 58.7695C61.6567 58.7695 62.0733 58.9302 62.3827 59.2515C62.6981 59.5669 62.8558 60.0549 62.8558 60.7155V63.3042H62.106V60.7958C62.106 59.8734 61.7251 59.4122 60.9634 59.4122C60.5825 59.4122 60.2642 59.5521 60.0083 59.8318C59.7583 60.1055 59.6333 60.4983 59.6333 61.0101V63.3042H58.8835Z"/><rect width="915.719" height="72.254" x="20.372" y="17.372" stroke="#DCDCDC" stroke-width=".744" rx="11.53"/></g><defs><clipPath id="clip0_1019_76270"><rect width="96" height="96" fill="#fff"/></clipPath></defs></svg>

<svg xmlns="http://www.w3.org/2000/svg" width="96" height="96" fill="none" viewBox="0 0 96 96"><g clip-path="url(#a)"><path fill="#464C59" d="M0 0h96v96H0z"/><rect width="915.719" height="72.254" x="20.372" y="17.372" fill="#fff" rx="11.53"/><path fill="#56585D" d="M29.534 26.695v-6.249h1.142v5.356h2.768v.893zm6.714.107q-.572 0-.938-.178a1.3 1.3 0 0 1-.544-.491 1.3 1.3 0 0 1-.179-.67q0-.615.482-1 .482-.384 1.446-.384h1.125v-.107q0-.454-.259-.67a.97.97 0 0 0-.643-.213q-.348 0-.607.17a.7.7 0 0 0-.32.481h-1.117q.045-.481.322-.839.285-.358.732-.544.445-.197 1-.197.945 0 1.49.473.545.474.545 1.34v2.722h-.973l-.108-.714q-.195.357-.553.589-.349.232-.901.232m.258-.893q.491 0 .76-.321.276-.321.347-.794h-.973q-.454 0-.651.17a.5.5 0 0 0-.197.4q0 .26.197.403.196.142.517.142m6.289.893q-.5 0-.875-.187t-.607-.527l-.125.607H40.17v-6.427h1.143V22.9q.214-.294.563-.518.357-.223.919-.223.624 0 1.116.304.49.303.776.83.285.527.286 1.196 0 .67-.286 1.196-.285.518-.776.822-.492.294-1.116.294m-.241-1q.544 0 .901-.366.358-.366.358-.946t-.358-.955a1.2 1.2 0 0 0-.901-.375q-.553 0-.91.375-.35.367-.349.946 0 .58.348.955.358.366.91.366m5.889 1q-.67 0-1.188-.286a2.07 2.07 0 0 1-.812-.803 2.4 2.4 0 0 1-.294-1.196q0-.687.285-1.223.295-.536.803-.83.518-.304 1.215-.304.651 0 1.151.286.5.285.777.785.285.492.285 1.098 0 .099-.009.206 0 .106-.008.223h-3.366q.036.518.357.812.33.295.795.295.348 0 .58-.152a1 1 0 0 0 .357-.41h1.16q-.124.42-.42.767-.285.34-.713.536-.42.196-.955.196m.009-3.713q-.42 0-.741.24-.322.232-.411.715h2.205a.96.96 0 0 0-.322-.697 1.07 1.07 0 0 0-.731-.258m3.472 3.606v-6.427h1.142v6.427z"/><path fill="#0D1117" d="M31.405 50.304v-6.571H29.23v-.719h5.228v.719H32.28v6.571zm5.603.125q-.74 0-1.312-.333a2.5 2.5 0 0 1-.906-.948q-.323-.604-.323-1.427 0-.812.323-1.416.323-.614.896-.948.583-.343 1.343-.343.75 0 1.291.343.553.334.844.886a2.5 2.5 0 0 1 .281 1.416v.26h-4.113q.03.594.27.99.25.385.615.583.375.198.791.198.541 0 .906-.25a1.43 1.43 0 0 0 .532-.677h.864a2.35 2.35 0 0 1-.802 1.198q-.584.468-1.5.468m0-4.676q-.624 0-1.114.386-.48.375-.552 1.103h3.25q-.032-.698-.48-1.093-.447-.396-1.104-.396M40 50.304l1.791-2.583L40 45.14h.947l1.447 2.135 1.459-2.135h.937l-1.791 2.582 1.79 2.583h-.937l-1.458-2.135-1.447 2.135zm7.898 0q-.708 0-1.115-.343-.405-.345-.406-1.24v-2.843h-.895v-.74h.895l.115-1.239h.76v1.24h1.52v.74h-1.52v2.842q0 .49.198.667.197.166.698.166h.541v.75zm8.289.125q-1.073 0-1.854-.468a3.25 3.25 0 0 1-1.197-1.323q-.427-.855-.427-1.979 0-1.114.427-1.958a3.23 3.23 0 0 1 1.197-1.333q.78-.48 1.854-.479 1.25 0 2.03.604.792.594 1.01 1.666h-.968a1.9 1.9 0 0 0-.687-1.083q-.51-.416-1.385-.416-.781 0-1.364.364-.584.354-.907 1.031-.312.668-.312 1.604 0 .937.313 1.614.322.667.906 1.031.582.354 1.364.354.875 0 1.385-.395.52-.407.687-1.073h.969q-.22 1.052-1.01 1.646-.781.593-2.031.593m6.749 0q-.73 0-1.313-.333a2.45 2.45 0 0 1-.927-.937q-.333-.615-.333-1.438t.344-1.426q.343-.615.927-.948a2.66 2.66 0 0 1 1.322-.333q.73 0 1.313.333t.916.948q.345.604.344 1.426 0 .823-.344 1.438-.344.604-.937.937a2.6 2.6 0 0 1-1.312.333m0-.75q.447 0 .833-.218.386-.219.624-.657.24-.436.24-1.083 0-.645-.24-1.083a1.56 1.56 0 0 0-.614-.656 1.64 1.64 0 0 0-.823-.218 1.66 1.66 0 0 0-.833.218 1.63 1.63 0 0 0-.625.656q-.24.438-.24 1.083 0 .646.24 1.084.24.437.615.656.385.218.822.218m3.958.625V45.14h.791l.052.927q.25-.49.719-.771a2 2 0 0 1 1.062-.281q.917 0 1.458.562.552.552.552 1.708v3.02h-.875v-2.926q0-1.614-1.333-1.614-.666 0-1.114.489-.437.48-.437 1.375v2.676zm8.15 0q-.709 0-1.115-.343-.405-.345-.406-1.24v-2.843h-.896v-.74h.896l.115-1.239h.76v1.24h1.52v.74h-1.52v2.842q0 .49.198.667.198.166.698.166h.541v.75zm4.315.125a2.56 2.56 0 0 1-1.313-.333 2.5 2.5 0 0 1-.906-.948q-.322-.604-.322-1.427 0-.812.322-1.416.323-.614.896-.948.584-.343 1.343-.343.75 0 1.292.343.552.334.843.886a2.5 2.5 0 0 1 .282 1.416v.26H77.68q.03.594.27.99.25.385.615.583.375.198.792.198.54 0 .906-.25a1.43 1.43 0 0 0 .53-.677h.865a2.35 2.35 0 0 1-.802 1.198q-.582.468-1.5.468m0-4.676q-.625 0-1.115.386-.48.375-.552 1.103h3.25q-.03-.698-.48-1.093-.447-.396-1.103-.396m3.755 4.551V45.14h.792l.052.927q.25-.49.718-.771a2 2 0 0 1 1.063-.281q.916 0 1.458.562.552.552.552 1.708v3.02h-.875v-2.926q0-1.614-1.333-1.614-.667 0-1.115.489-.437.48-.437 1.375v2.676zm8.15 0q-.708 0-1.114-.343-.406-.345-.406-1.24v-2.843h-.896v-.74h.896l.114-1.239h.76v1.24h1.52v.74h-1.52v2.842q0 .49.198.667.198.166.698.166h.541v.75z"/><rect width="34.902" height="14.976" x="92.927" y="39.316" fill="#F2F7FD" rx="4.463"/><path fill="#9EA0A2" d="M32.328 63.411q-.92 0-1.59-.401a2.8 2.8 0 0 1-1.026-1.134q-.366-.732-.366-1.696 0-.955.366-1.678a2.77 2.77 0 0 1 1.027-1.143q.67-.41 1.589-.41 1.071 0 1.74.517.679.51.866 1.428h-.83a1.64 1.64 0 0 0-.59-.928q-.436-.357-1.186-.357-.67 0-1.17.313a2 2 0 0 0-.776.883q-.268.572-.268 1.375t.268 1.383q.276.572.776.884.5.304 1.17.304.75 0 1.187-.34.446-.348.59-.919h.83q-.188.902-.867 1.41-.669.51-1.74.51m5.41 0q-.555 0-.92-.187a1.27 1.27 0 0 1-.723-1.178q0-.678.518-1.045.517-.366 1.41-.366h1.196v-.053q0-.58-.303-.875-.303-.304-.812-.304-.438 0-.76.223-.31.215-.392.634h-.767q.044-.482.32-.812.286-.33.706-.5.42-.178.893-.178.928 0 1.392.5.474.49.473 1.312v2.722h-.67l-.044-.794q-.188.375-.553.642-.357.26-.964.26m.116-.633q.428 0 .732-.224.312-.222.473-.58.16-.357.16-.75v-.009h-1.133q-.66 0-.937.232a.7.7 0 0 0-.268.563q0 .349.25.562.258.206.723.206m3.538 2.49v-6.391h.678l.072.732q.213-.322.607-.58.401-.26 1.017-.26.66 0 1.152.304.49.304.759.83.276.527.276 1.196 0 .67-.276 1.197a2.04 2.04 0 0 1-.768.82q-.49.295-1.152.295-.544 0-.973-.223a1.55 1.55 0 0 1-.642-.625v2.705zm2.285-2.508q.447 0 .786-.206a1.5 1.5 0 0 0 .535-.589q.197-.375.197-.875t-.197-.874-.535-.58a1.44 1.44 0 0 0-.786-.215q-.446 0-.785.214-.34.205-.536.58a1.86 1.86 0 0 0-.197.875q0 .5.197.875.196.374.535.59.34.204.786.205m5.193.544q-.607 0-.955-.294t-.348-1.063V59.51h-.768v-.633h.768l.098-1.063h.651v1.063h1.304v.633h-1.304v2.437q0 .42.17.572.17.142.598.142h.464v.643zm2.455-5.41a.53.53 0 0 1-.375-.142.53.53 0 0 1-.143-.375q0-.215.143-.357a.53.53 0 0 1 .375-.143q.215 0 .366.143a.47.47 0 0 1 .152.357.5.5 0 0 1-.152.375.52.52 0 0 1-.366.143m-.375 5.41V58.88h.75v4.427zm4.37.107q-.623 0-1.124-.285a2.1 2.1 0 0 1-.795-.804q-.285-.526-.285-1.232 0-.705.294-1.223.296-.525.795-.812.508-.285 1.134-.285.624 0 1.124.285t.786.813q.294.517.294 1.222t-.294 1.232a2.1 2.1 0 0 1-.804.804q-.5.285-1.124.285m0-.642q.385 0 .715-.188.33-.187.535-.562t.206-.929-.206-.928a1.34 1.34 0 0 0-.526-.562 1.4 1.4 0 0 0-.705-.188q-.385 0-.715.188-.33.187-.535.562t-.206.928.206.929.526.562q.33.188.706.188m3.563.535V58.88h.679l.045.794q.214-.42.615-.66.402-.242.911-.242.785 0 1.25.483.473.473.473 1.463v2.59h-.75v-2.51q0-1.383-1.143-1.383-.57 0-.955.42-.375.41-.375 1.178v2.294z"/><rect width="915.719" height="72.254" x="20.372" y="17.372" stroke="#DCDCDC" stroke-width=".744" rx="11.53"/></g><defs><clipPath id="a"><path fill="#fff" d="M0 0h96v96H0z"/></clipPath></defs></svg>
